svg/color/ada.svg

<svg width="64" height="65" viewBox="0 0 64 65" fill="none" xmlns="http://www.w3.org/2000/svg">
<rect y="0.303711" width="64" height="64" rx="32" fill="#0033AD"/>
<rect x="0.5" y="0.803711" width="63" height="63" rx="31.5" stroke="#070B14" stroke-opacity="0.15"/>
<path d="M21.7758 32.1541C21.68 33.8176 22.9606 35.2418 24.6241 35.3375C24.684 35.3375 24.7438 35.3375 24.8037 35.3375C26.4791 35.3375 27.8315 33.9852 27.8195 32.3097C27.8195 30.6342 26.4672 29.2818 24.7917 29.2938C23.188 29.2938 21.8596 30.5504 21.7758 32.1541Z" fill="white"/>
<path d="M10.5022 31.3762C9.96361 31.3403 9.49686 31.7591 9.47293 32.2977C9.44899 32.8362 9.8559 33.303 10.3945 33.3269C10.933 33.3628 11.3878 32.944 11.4237 32.4054C11.4596 31.8669 11.0407 31.4121 10.5022 31.3762Z" fill="white"/>
<path d="M21.5842 14.6093C22.0629 14.3699 22.2544 13.7715 22.015 13.2928C21.7757 12.8141 21.1773 12.6226 20.6986 12.862C20.2198 13.1013 20.0284 13.6877 20.2677 14.1664C20.5071 14.6571 21.0935 14.8606 21.5842 14.6093C21.5842 14.6093 21.5722 14.6093 21.5842 14.6093Z" fill="white"/>
<path d="M24.6482 19.9589C25.3902 19.5879 25.6894 18.6784 25.3184 17.9364C24.9474 17.1944 24.0379 16.8952 23.2959 17.2662C22.5539 17.6372 22.2547 18.5467 22.6257 19.2887C22.9967 20.0307 23.9062 20.3299 24.6482 19.9589Z" fill="white"/>
<path d="M14.3318 23.6329C14.9063 24.0039 15.6722 23.8483 16.0552 23.2739C16.4262 22.6994 16.2706 21.9335 15.6962 21.5505C15.1217 21.1795 14.3558 21.3351 13.9728 21.9095C13.5898 22.484 13.7574 23.2619 14.3318 23.6329Z" fill="white"/>
<path d="M16.1628 30.8376C15.3251 30.7898 14.619 31.424 14.5711 32.2618C14.5232 33.0995 15.1575 33.8056 15.9953 33.8535C16.833 33.9014 17.5391 33.2671 17.587 32.4293C17.6348 31.6036 17.0006 30.8855 16.1628 30.8376Z" fill="white"/>
<path d="M14.4995 40.9743C13.8891 41.2855 13.6378 42.0275 13.949 42.6498C14.2601 43.2602 15.0021 43.5115 15.6244 43.2003C16.2348 42.8892 16.4861 42.1472 16.175 41.5249C15.8638 40.9145 15.1098 40.6632 14.4995 40.9743Z" fill="white"/>
<path d="M20.3637 27.714C21.1895 28.2525 22.2905 28.0251 22.8171 27.1994C23.3557 26.3736 23.1283 25.2725 22.3025 24.746C21.4767 24.2074 20.3757 24.4348 19.8491 25.2606C19.3106 26.0744 19.5379 27.1754 20.3637 27.714Z" fill="white"/>
<path d="M38.9736 19.8393C39.6677 20.294 40.6132 20.1026 41.068 19.4084C41.5227 18.7143 41.3313 17.7688 40.6371 17.3141C39.943 16.8593 38.9975 17.0508 38.5427 17.7449C38.076 18.451 38.2675 19.3845 38.9736 19.8393Z" fill="white"/>
<path d="M42.0612 14.5134C42.516 14.8126 43.1144 14.681 43.4136 14.2262C43.7127 13.7714 43.5811 13.173 43.1263 12.8738C42.6715 12.5746 42.0732 12.7063 41.774 13.1491C41.4867 13.6039 41.6184 14.2142 42.0612 14.5134Z" fill="white"/>
<path d="M39.2009 29.2699C37.5374 29.1741 36.1013 30.4547 36.0175 32.1182C35.9217 33.7817 37.2023 35.2179 38.8658 35.3016C38.9257 35.3016 38.9855 35.3016 39.0334 35.3016C40.6969 35.3016 42.0493 33.9493 42.0493 32.2738C42.0612 30.6821 40.8046 29.3536 39.2009 29.2699Z" fill="white"/>
<path d="M25.6414 27.4986C26.1561 28.5158 27.1973 29.1621 28.3462 29.1621C30.0097 29.1621 31.3621 27.8097 31.3621 26.1342C31.3621 25.6675 31.2543 25.2008 31.0389 24.7699C30.285 23.2739 28.4658 22.6756 26.9818 23.4295C25.4859 24.1955 24.8875 26.0146 25.6414 27.4986Z" fill="white"/>
<path d="M49.3259 23.6329C49.9362 23.3217 50.1756 22.5678 49.8644 21.9574C49.5533 21.3471 48.7993 21.1077 48.1889 21.4189C47.5786 21.73 47.3392 22.472 47.6384 23.0824C47.9615 23.6927 48.7035 23.9441 49.3259 23.6329Z" fill="white"/>
<path d="M41.6665 24.5903C40.7928 25.0331 40.4338 26.0983 40.8766 26.9719C41.3194 27.8456 42.3845 28.2046 43.2582 27.7618C44.1318 27.319 44.4909 26.2539 44.0481 25.3802C43.6053 24.5066 42.5401 24.1595 41.6665 24.5903Z" fill="white"/>
<path d="M31.793 14.0588C32.4752 14.0947 33.0616 13.5681 33.1094 12.8859C33.1573 12.2038 32.6188 11.6173 31.9366 11.5695C31.2544 11.5336 30.668 12.0482 30.6201 12.7303C30.5842 13.4245 31.1108 14.0109 31.793 14.0588Z" fill="white"/>
<path d="M31.781 21.8739C32.7623 21.9337 33.6001 21.1797 33.6479 20.1984C33.7078 19.217 32.9538 18.3793 31.9724 18.3314C30.9911 18.2716 30.1533 19.0255 30.1055 20.0069C30.0576 20.9882 30.7996 21.826 31.781 21.8739Z" fill="white"/>
<path d="M22.1589 40.0169C23.0326 39.5741 23.3916 38.509 22.9488 37.6353C22.506 36.7617 21.4409 36.4027 20.5672 36.8455C19.6936 37.2883 19.3345 38.3534 19.7774 39.2271C20.2202 40.1007 21.2853 40.4597 22.1589 40.0169Z" fill="white"/>
<path d="M32.9299 24.4708C32.0203 25.871 32.4033 27.738 33.8035 28.6475C35.2038 29.5571 37.0708 29.1741 37.9803 27.7739C38.8899 26.3737 38.5069 24.5067 37.1067 23.5971C36.616 23.274 36.0415 23.1064 35.4551 23.1064C34.4378 23.1064 33.4924 23.6211 32.9299 24.4708Z" fill="white"/>
<path d="M38.1837 37.1088C37.4297 35.6128 35.6106 35.0144 34.1266 35.7684C32.6306 36.5224 32.0322 38.3415 32.7862 39.8255C33.5402 41.3214 35.3593 41.9198 36.8433 41.1659C38.3273 40.4239 38.9377 38.6287 38.1957 37.1327C38.1957 37.1207 38.1957 37.1207 38.1837 37.1088Z" fill="white"/>
<path d="M43.4612 36.8933C42.6354 36.3547 41.5344 36.5821 41.0078 37.4079C40.4693 38.2337 40.6966 39.3347 41.5224 39.8613C42.3482 40.3999 43.4492 40.1725 43.9758 39.3467C44.5144 38.5329 44.287 37.4319 43.4612 36.8933Z" fill="white"/>
<path d="M49.2541 32.3574C49.302 31.5197 48.6677 30.8136 47.83 30.7657C46.9922 30.7179 46.2861 31.3521 46.2383 32.1899C46.1904 33.0276 46.8247 33.7337 47.6624 33.7816C48.4882 33.8295 49.2063 33.1832 49.2541 32.3574Z" fill="white"/>
<path d="M53.4307 31.2803C52.8922 31.2444 52.4255 31.6633 52.4015 32.2019C52.3776 32.7404 52.7845 33.2072 53.323 33.2311C53.8616 33.267 54.3164 32.8481 54.3523 32.3096C54.3762 31.771 53.9693 31.3162 53.4307 31.2803Z" fill="white"/>
<path d="M49.4934 40.9742C48.9189 40.6032 48.153 40.7588 47.77 41.3333C47.399 41.9077 47.5546 42.6736 48.129 43.0566C48.7035 43.4276 49.4694 43.272 49.8524 42.6976C50.2354 42.1231 50.0678 41.3452 49.4934 40.9742Z" fill="white"/>
<path d="M21.752 50.0937C21.2972 49.7945 20.6988 49.9262 20.3996 50.369C20.1005 50.8238 20.2321 51.4222 20.6749 51.7214C21.1297 52.0206 21.7281 51.8889 22.0273 51.4461C22.3384 51.0033 22.2068 50.3929 21.752 50.0937Z" fill="white"/>
<path d="M42.2409 49.998C41.7622 50.2373 41.5707 50.8357 41.8101 51.3144C42.0494 51.7931 42.6478 51.9846 43.1265 51.7453C43.6053 51.5059 43.7967 50.9195 43.5574 50.4408C43.318 49.9501 42.7316 49.7466 42.2409 49.998C42.2529 49.998 42.2409 49.998 42.2409 49.998Z" fill="white"/>
<path d="M30.8953 40.1366C31.8048 38.7363 31.4219 36.8694 30.0216 35.9478C28.6214 35.0383 26.7544 35.4213 25.8329 36.8215C24.9114 38.2217 25.3063 40.0887 26.7065 41.0102C27.1972 41.3333 27.7717 41.5009 28.3581 41.5009C29.3873 41.5129 30.3328 40.9982 30.8953 40.1366Z" fill="white"/>
<path d="M24.8515 44.7682C24.1574 44.3134 23.212 44.5049 22.7572 45.199C22.3024 45.8931 22.4939 46.8386 23.188 47.2934C23.8821 47.7481 24.8276 47.5567 25.2824 46.8625C25.7491 46.1684 25.5576 45.2229 24.8515 44.7682Z" fill="white"/>
<path d="M31.9006 50.5486C31.2184 50.5127 30.632 51.0393 30.5841 51.7214C30.5363 52.4036 31.0748 52.99 31.757 53.0379C32.4392 53.0738 33.0256 52.5592 33.0734 51.877C33.1094 51.1829 32.5828 50.5965 31.9006 50.5486Z" fill="white"/>
<path d="M31.9127 42.7337C30.9313 42.6738 30.0936 43.4278 30.0457 44.4092C29.9858 45.3905 30.7398 46.2283 31.7212 46.2761C32.7025 46.324 33.5403 45.582 33.5882 44.6007C33.648 43.6313 32.894 42.7815 31.9127 42.7337Z" fill="white"/>
<path d="M39.1773 44.6485C38.4353 45.0315 38.1361 45.941 38.519 46.683C38.902 47.425 39.8116 47.7242 40.5536 47.3412C41.2956 46.9702 41.5948 46.0607 41.2238 45.3187C40.8408 44.5767 39.9312 44.2655 39.1773 44.6485Z" fill="white"/>
</svg>

<svg xmlns="http://www.w3.org/2000/svg" width="64" height="65" fill="none" viewBox="0 0 64 65"><rect width="64" height="64" y=".304" fill="#0033AD" rx="32"/><rect width="63" height="63" x=".5" y=".804" stroke="#070B14" stroke-opacity=".15" rx="31.5"/><path fill="#fff" d="M21.776 32.154a3.023 3.023 0 0 0 2.848 3.183h.18a3.006 3.006 0 0 0 3.016-3.027 3.006 3.006 0 0 0-3.028-3.016 3.02 3.02 0 0 0-3.016 2.86m-11.274-.778a.97.97 0 0 0-1.03.922.977.977 0 1 0 1.03-.921M21.584 14.61a.987.987 0 0 0 .431-1.317.987.987 0 0 0-1.316-.431.973.973 0 0 0-.431 1.304.967.967 0 0 0 1.316.443s-.012 0 0 0m3.064 5.35a1.51 1.51 0 0 0 .67-2.023 1.51 1.51 0 0 0-2.022-.67 1.51 1.51 0 0 0-.67 2.023 1.51 1.51 0 0 0 2.022.67m-10.316 3.674c.574.37 1.34.215 1.723-.36a1.25 1.25 0 0 0-.359-1.723 1.25 1.25 0 0 0-1.723.36 1.24 1.24 0 0 0 .359 1.723m1.831 7.205a1.504 1.504 0 0 0-1.592 1.424 1.504 1.504 0 0 0 1.424 1.591 1.511 1.511 0 0 0 .168-3.016M14.5 40.974a1.248 1.248 0 0 0 1.124 2.226c.61-.31.862-1.053.551-1.675a1.25 1.25 0 0 0-1.676-.55m5.865-13.261a1.76 1.76 0 0 0 2.453-.515 1.76 1.76 0 0 0-.515-2.453 1.76 1.76 0 0 0-2.453.515 1.766 1.766 0 0 0 .515 2.453m18.61-7.874c.694.454 1.64.263 2.094-.432a1.52 1.52 0 0 0-.43-2.094 1.52 1.52 0 0 0-2.095.43 1.496 1.496 0 0 0 .43 2.095m3.088-5.326a.97.97 0 0 0 1.353-.287.97.97 0 0 0-.288-1.352.98.98 0 0 0-1.352.275 1.01 1.01 0 0 0 .287 1.364M39.2 29.27a3.016 3.016 0 0 0-3.183 2.848 3.016 3.016 0 0 0 2.849 3.184h.167a3.02 3.02 0 0 0 3.016-3.028 3 3 0 0 0-2.848-3.004m-13.56-1.771a3.021 3.021 0 0 0 5.72-1.364 3.016 3.016 0 0 0-4.38-2.705c-1.495.765-2.094 2.585-1.34 4.069m23.685-3.866c.61-.311.85-1.065.538-1.676a1.247 1.247 0 0 0-2.226 1.125c.324.61 1.066.862 1.688.55m-7.659.958a1.775 1.775 0 1 0 2.381.79 1.785 1.785 0 0 0-2.382-.79m-9.873-10.531a1.26 1.26 0 0 0 1.316-1.173c.048-.682-.49-1.269-1.172-1.316a1.25 1.25 0 0 0-1.317 1.16c-.036.694.49 1.28 1.173 1.329m-.012 7.815c.981.06 1.82-.694 1.867-1.676a1.76 1.76 0 0 0-1.676-1.867 1.76 1.76 0 0 0-1.867 1.676 1.77 1.77 0 0 0 1.676 1.867m-9.622 18.143a1.775 1.775 0 1 0-1.593-3.172 1.775 1.775 0 0 0 1.593 3.172M32.93 24.47a3.013 3.013 0 0 0 .874 4.178c1.4.91 3.267.526 4.176-.874a3.013 3.013 0 0 0-2.525-4.668 3.03 3.03 0 0 0-2.525 1.365m5.254 12.638a3.016 3.016 0 0 0-4.057-1.34 3.016 3.016 0 0 0-1.34 4.057 3.016 3.016 0 0 0 4.056 1.34 3.007 3.007 0 0 0 1.353-4.033c0-.012 0-.012-.012-.024m5.277-.216a1.76 1.76 0 0 0-2.453.515 1.76 1.76 0 0 0 .514 2.453 1.76 1.76 0 0 0 2.454-.514 1.766 1.766 0 0 0-.515-2.454m5.793-4.536a1.504 1.504 0 0 0-1.424-1.591 1.504 1.504 0 0 0-1.592 1.424 1.504 1.504 0 0 0 1.424 1.592 1.52 1.52 0 0 0 1.592-1.425m4.176-1.077a.97.97 0 0 0-1.029.922.977.977 0 1 0 1.95.108.985.985 0 0 0-.92-1.03m-3.938 9.694a1.25 1.25 0 0 0-1.723.36 1.25 1.25 0 0 0 .359 1.723c.575.37 1.34.215 1.723-.36a1.24 1.24 0 0 0-.359-1.723m-27.741 9.12a.98.98 0 0 0-1.352.275.98.98 0 0 0 .275 1.352.98.98 0 0 0 1.352-.275.96.96 0 0 0-.275-1.352m20.488-.096a.987.987 0 0 0-.43 1.316c.24.48.838.67 1.316.431a.973.973 0 0 0 .431-1.304.97.97 0 0 0-1.316-.443c.012 0 0 0 0 0m-11.346-9.861a3.03 3.03 0 0 0-.873-4.19 3.03 3.03 0 0 0-4.19.874 3.019 3.019 0 0 0 2.526 4.68 2.98 2.98 0 0 0 2.537-1.364m-6.043 4.631a1.52 1.52 0 0 0-2.095.431 1.52 1.52 0 0 0 .431 2.094c.694.455 1.64.264 2.094-.43a1.5 1.5 0 0 0-.43-2.095m7.048 5.781a1.26 1.26 0 0 0-1.316 1.172c-.048.683.49 1.269 1.173 1.317a1.25 1.25 0 0 0 1.316-1.161 1.265 1.265 0 0 0-1.172-1.328m.012-7.815a1.76 1.76 0 0 0-1.867 1.675c-.06.982.694 1.82 1.675 1.867a1.77 1.77 0 0 0 1.867-1.675 1.77 1.77 0 0 0-1.675-1.867m7.264 1.915a1.512 1.512 0 0 0 1.377 2.692 1.51 1.51 0 0 0 .67-2.022 1.527 1.527 0 0 0-2.047-.67"/></svg>
